X: 10463
T: The SPRIG OF SHILLELAH
Q: "Jig time."
%R: jig
B: W. Hamilton "Universal Tune-Book" Vol. 1 Glasgow 1844 p.46 #3
S: http://imslp.org/wiki/Hamilton's_Universal_Tune-Book_(Various)
Z: 2016 John Chambers <jc:trillian.mit.edu>
M: 6/8
L: 1/8
K: G
% - - - - - - - - - - - - - - - - - - - - - - - - -
D |\
D2G GFG | A>BA A2G |\
(GBd) dcB | AcB AGF |\
G>AB EFG | DEF G2 :|\
c |\
BGB dBd | ece (d2c) |
BGB def | gfe d2B |\
c>dc BgB | AcB A2G |\
GBd dcB | AcB AGF |\
GAB EFG | DEF G2 :|
% - - - - - - - - - - - - - - - - - - - - - - - - -

%%sep 1 1 500
%%sep 1 1 500

